X: 166
T: Dumetella Hynes' (jig)
N: 040401
C: BB
M: 6/8
L: 1/8
Q: 340
R: jig
K: D
A|"D"dBA FED | "D"DFA "Em"EDB, | "Bm7"dBA FBA | "D"DFA "G"B2 c |
"D"dBA FED | "D"DFA "Em"EDE | "G"GBd "A"cAE | "D"FDD "D"D2 :|
e|"D"fdf "A"ecA | "G"BGB "D"AFD | "Em"EGB "A"Ace | "D"dfd "A"e2 A |
"D"dfa "Em"bge | "D"fdf "A"ecA | "Bm"Bcd "F#m"AFE |"D"FDD "D"D2 :|
%%%%%%%%%%%%%%%%%%%%%%%%%%%%%%%%%%%%%%%%%%%
